svg/gb/dby.svg

<svg xmlns="http://www.w3.org/2000/svg" xmlns:xlink="http://www.w3.org/1999/xlink" width="900" height="600"><path fill="#7daed7" d="M0 0h900v600H0z"/><path d="M450 0v600M0 300h900" stroke="#fff" stroke-width="220"/><path d="M450 0v600M0 300h900" stroke="#006e39" stroke-width="190"/><g id="a" fill="#fc0"><path d="M450 245.735h.976l.976-.081.894-.162.895-.244.894-.244.813-.326.895-.406.813-.488.813-.488.894-.569.895-.732.894-.732.895-.813.976-.895.975-.975 1.057-1.057 1.058-1.058 1.138-.894 1.057-.813 1.057-.732.976-.569 1.057-.488.976-.325.894-.244.976-.163.813-.081.813.081.814.163.731.325.651.325.65.488.57.569.732.895.569 1.057.406 1.22.326 1.219.244 1.383.081 1.545-.081 1.545-.163 1.707-.325 1.708-.488 1.87-.651 1.87-.732 1.871-.975 2.033-1.058 2.033-1.219 2.032-1.464 2.115-6.017 8.456 3.171 2.277 5.936-8.213 1.952-2.764 1.707-2.684 1.545-2.602 1.383-2.602 1.138-2.439.895-2.44.731-2.277.407-2.277.244-2.114v-2.114l-.244-1.952-.407-1.951-.731-1.789-.976-1.708-1.301-1.707-1.464-1.545-.813-.813-.895-.732-.975-.813-1.139-.814-1.22-.731-1.382-.814-1.464-.731-1.707-.651-1.87-.65-2.115-.57-2.358-.569-2.683-.406-2.846-.407-3.172-.244-3.496-.163-3.822-.081-3.822.081-3.496.163-3.172.244-2.846.407-2.602.406-2.358.569-2.114.57-1.87.65-1.708.651-1.545.731-1.382.814-1.22.731-1.057.814-1.057.813-.895.732-.813.813-1.464 1.545-1.301 1.707-.976 1.708-.65 1.789-.488 1.951-.244 1.952v2.114l.244 2.114.488 2.277.65 2.277.976 2.44 1.057 2.439 1.383 2.602 1.545 2.602 1.707 2.684 1.952 2.764 5.936 8.213 3.253-2.277-6.099-8.456-1.464-2.115-1.219-2.032-1.058-2.033-.975-2.033-.732-1.871-.651-1.87-.488-1.87-.325-1.708-.163-1.707-.081-1.545.081-1.545.244-1.383.326-1.219.406-1.22.651-1.057.65-.895.57-.569.65-.488.651-.325.731-.325.814-.163.813-.081.813.081.976.163.894.244.976.325 1.057.488.976.569 1.057.732 1.057.813 1.138.894 1.058 1.058 1.057 1.057.975.975.976.895.895.813.894.732.895.732.894.569.813.488.813.488.895.406.813.326.894.244.895.244.894.162.976.081H450zM450.244 366.977l.081 1.382.326 1.301.406 1.301.569 1.301.732 1.301.813 1.383 1.057 1.382 1.139 1.464.325.406.163.326.162.325.082.325-.082.325-.081.326-.081.325-.244.325-.569.813-.57.814-.569.731-.65.732-.732.732-.813.732-.814.732-.894.732-.894-.732-.814-.732-.813-.732-.732-.732-.65-.732-.569-.731-.57-.814-.569-.813-.244-.325-.081-.325-.081-.326-.082-.325.082-.325.162-.325.163-.326.325-.406 1.139-1.464 1.057-1.382.894-1.383.732-1.301.488-1.301.488-1.301.244-1.301.081-1.382h.488z"/><path d="M467.889 275.416l-.813-.732-.732-.732-.569-.813-.488-.976-.406-1.057-.326-1.22-.325-1.464-.244-1.545-.325-1.626-.407-1.382-.569-1.139-.732-.894-.731-.651-.814-.487-.813-.163-.894.081-.651.163-.569.325-.65.407-.57.488-.488.569-.569.65-.488.732-.488.813-.406.895-.407.976-.325 1.057-.244 1.138-.244 1.138-.163 1.302-.162 1.382v1.382l-.081 5.855-2.196-.081v-7.481l.163-1.789.162-1.708.163-1.626.325-1.464.407-1.382.406-1.301.57-1.139.569-1.057.732-.976.731-.813.814-.732.975-.569 1.057-.488 1.058-.325 1.219-.244.651-.081.65-.082h1.464l.813.082.813.081.976.163.976.244 1.057.325 1.138.406 1.22.57 1.383.65 1.382.732 1.545.976 1.626 1.057 1.789 1.22 1.708 1.301 1.545 1.219 1.382 1.139 1.139 1.138 1.057 1.057.894 1.057.732.895.65.976.57.894.406.813.407.814.244.731.244.732.244.651.081.65.163.651.162 1.219v1.139l-.162 1.138-.244 1.057-.407 1.058-.569.975-.651.895-.813.894-.976.895-1.057.813-1.219.732-1.301.813-1.464.65-1.545.732-1.708.569-1.789.651-5.367 1.789-.731-2.114 5.529-1.789 2.602-1.057 2.196-1.139 1.87-1.301 1.545-1.301 1.22-1.464.813-1.382.406-1.382.082-1.301-.163-.813-.406-.814-.651-.569-.894-.569-1.058-.325-1.301-.163h-1.463l-1.627.163-1.545.244-1.463.162-1.22.082-1.138-.082-1.058-.162-.975-.244-.976-.488-.895-.569zM450.163 262.405l.081-.732.081-.732.244-.731.325-.732.407-.732.488-.732.569-.813.651-.813.244-.407.162-.406-.081-.326-.163-.406-.325-.407-.325-.406-.325-.488-.326-.407-.406-.406-.488-.407-.488-.407-.488-.406-.488.406-.488.407-.406.407-.407.406-.407.407-.325.488-.325.406-.325.407-.163.406-.081.326.162.406.244.407.651.813.569.813.488.732.407.732.325.732.244.731.162.732.082.732h.244z"/></g><use xlink:href="#a" transform="rotate(72 450 300)"/><use xlink:href="#a" transform="rotate(144 450 300)"/><use xlink:href="#a" transform="rotate(216 450 300)"/><use xlink:href="#a" transform="rotate(288 450 300)"/><circle cx="450" cy="300" r="24" fill="#fc0"/></svg>

<?xml version="1.0" encoding="UTF-8"?>
<svg xmlns="http://www.w3.org/2000/svg" xmlns:xlink="http://www.w3.org/1999/xlink" width="900" height="600">
	<rect width="900" height="600" fill="#7daed7"/>
	<path d="M 450,0 V 600 M 0,300 H 900" stroke="#fff" stroke-width="220"/>
	<path d="M 450,0 V 600 M 0,300 H 900" stroke="#006e39" stroke-width="190"/>
	<g id="p" fill="#fc0">
		<path d="M 450,245.735 450.976,245.735 451.952,245.654 452.846,245.492 453.741,245.248 454.635,245.004 455.448,244.678 456.343,244.272 457.156,243.784 457.969,243.296 458.863,242.727 459.758,241.995 460.652,241.263 461.547,240.45 462.523,239.555 463.498,238.58 464.555,237.523 465.613,236.465 466.751,235.571 467.808,234.758 468.865,234.026 469.841,233.457 470.898,232.969 471.874,232.644 472.768,232.4 473.744,232.237 474.557,232.156 475.37,232.237 476.184,232.4 476.915,232.725 477.566,233.05 478.216,233.538 478.786,234.107 479.518,235.002 480.087,236.059 480.493,237.279 480.819,238.498 481.063,239.881 481.144,241.426 481.063,242.971 480.9,244.678 480.575,246.386 480.087,248.256 479.436,250.126 478.704,251.997 477.729,254.03 476.671,256.063 475.452,258.095 473.988,260.21 467.971,268.666 471.142,270.943 477.078,262.73 479.03,259.966 480.737,257.282 482.282,254.68 483.665,252.078 484.803,249.639 485.698,247.199 486.429,244.922 486.836,242.645 487.08,240.531 487.08,238.417 486.836,236.465 486.429,234.514 485.698,232.725 484.722,231.017 483.421,229.31 481.957,227.765 481.144,226.952 480.249,226.22 479.274,225.407 478.135,224.593 476.915,223.862 475.533,223.048 474.069,222.317 472.362,221.666 470.492,221.016 468.377,220.446 466.019,219.877 463.336,219.471 460.49,219.064 457.318,218.82 453.822,218.657 450,218.576 446.178,218.657 442.682,218.82 439.51,219.064 436.664,219.471 434.062,219.877 431.704,220.446 429.59,221.016 427.72,221.666 426.012,222.317 424.467,223.048 423.085,223.862 421.865,224.593 420.808,225.407 419.751,226.22 418.856,226.952 418.043,227.765 416.579,229.31 415.278,231.017 414.302,232.725 413.652,234.514 413.164,236.465 412.92,238.417 412.92,240.531 413.164,242.645 413.652,244.922 414.302,247.199 415.278,249.639 416.335,252.078 417.718,254.68 419.263,257.282 420.97,259.966 422.922,262.73 428.858,270.943 432.111,268.666 426.012,260.21 424.548,258.095 423.329,256.063 422.271,254.03 421.296,251.997 420.564,250.126 419.913,248.256 419.425,246.386 419.1,244.678 418.937,242.971 418.856,241.426 418.937,239.881 419.181,238.498 419.507,237.279 419.913,236.059 420.564,235.002 421.214,234.107 421.784,233.538 422.434,233.05 423.085,232.725 423.816,232.4 424.63,232.237 425.443,232.156 426.256,232.237 427.232,232.4 428.126,232.644 429.102,232.969 430.159,233.457 431.135,234.026 432.192,234.758 433.249,235.571 434.387,236.465 435.445,237.523 436.502,238.58 437.477,239.555 438.453,240.45 439.348,241.263 440.242,241.995 441.137,242.727 442.031,243.296 442.844,243.784 443.657,244.272 444.552,244.678 445.365,245.004 446.259,245.248 447.154,245.492 448.048,245.654 449.024,245.735 450,245.735 z"/>
		<path d="M 450.244,366.977 450.325,368.359 450.651,369.66 451.057,370.961 451.626,372.262 452.358,373.563 453.171,374.946 454.228,376.328 455.367,377.792 455.692,378.198 455.855,378.524 456.017,378.849 456.099,379.174 456.017,379.499 455.936,379.825 455.855,380.15 455.611,380.475 455.042,381.288 454.472,382.102 453.903,382.833 453.253,383.565 452.521,384.297 451.708,385.029 450.894,385.761 450,386.493 449.106,385.761 448.292,385.029 447.479,384.297 446.747,383.565 446.097,382.833 445.528,382.102 444.958,381.288 444.389,380.475 444.145,380.15 444.064,379.825 443.983,379.499 443.901,379.174 443.983,378.849 444.145,378.524 444.308,378.198 444.633,377.792 445.772,376.328 446.829,374.946 447.723,373.563 448.455,372.262 448.943,370.961 449.431,369.66 449.675,368.359 449.756,366.977 450.244,366.977 z"/>
		<path d="M 467.889,275.416 467.076,274.684 466.344,273.952 465.775,273.139 465.287,272.163 464.881,271.106 464.555,269.886 464.23,268.422 463.986,266.877 463.661,265.251 463.254,263.869 462.685,262.73 461.953,261.836 461.222,261.185 460.408,260.698 459.595,260.535 458.701,260.616 458.05,260.779 457.481,261.104 456.831,261.511 456.261,261.999 455.773,262.568 455.204,263.218 454.716,263.95 454.228,264.763 453.822,265.658 453.415,266.634 453.09,267.691 452.846,268.829 452.602,269.967 452.439,271.269 452.277,272.651 452.277,274.033 452.196,279.888 450,279.807 450,274.196 450,272.326 450.163,270.537 450.325,268.829 450.488,267.203 450.813,265.739 451.22,264.357 451.626,263.056 452.196,261.917 452.765,260.86 453.497,259.884 454.228,259.071 455.042,258.339 456.017,257.77 457.074,257.282 458.132,256.957 459.351,256.713 460.002,256.632 460.652,256.55 461.303,256.55 462.116,256.55 462.929,256.632 463.742,256.713 464.718,256.876 465.694,257.12 466.751,257.445 467.889,257.851 469.109,258.421 470.492,259.071 471.874,259.803 473.419,260.779 475.045,261.836 476.834,263.056 478.542,264.357 480.087,265.576 481.469,266.715 482.608,267.853 483.665,268.91 484.559,269.967 485.291,270.862 485.941,271.838 486.511,272.732 486.917,273.545 487.324,274.359 487.568,275.09 487.812,275.822 488.056,276.473 488.137,277.123 488.3,277.774 488.462,278.993 488.462,280.132 488.3,281.27 488.056,282.327 487.649,283.385 487.08,284.36 486.429,285.255 485.616,286.149 484.64,287.044 483.583,287.857 482.364,288.589 481.063,289.402 479.599,290.052 478.054,290.784 476.346,291.353 474.557,292.004 469.19,293.793 468.459,291.679 473.988,289.89 476.59,288.833 478.786,287.694 480.656,286.393 482.201,285.092 483.421,283.628 484.234,282.246 484.64,280.864 484.722,279.563 484.559,278.75 484.153,277.936 483.502,277.367 482.608,276.798 481.55,276.473 480.249,276.31 478.786,276.31 477.159,276.473 475.614,276.717 474.151,276.879 472.931,276.961 471.793,276.879 470.735,276.717 469.76,276.473 468.784,275.985 467.889,275.416 z"/>
		<path d="M 450.163,262.405 450.244,261.673 450.325,260.941 450.569,260.21 450.894,259.478 451.301,258.746 451.789,258.014 452.358,257.201 453.009,256.388 453.253,255.981 453.415,255.575 453.334,255.249 453.171,254.843 452.846,254.436 452.521,254.03 452.196,253.542 451.87,253.135 451.464,252.729 450.976,252.322 450.488,251.915 450,251.509 449.512,251.915 449.024,252.322 448.618,252.729 448.211,253.135 447.804,253.542 447.479,254.03 447.154,254.436 446.829,254.843 446.666,255.249 446.585,255.575 446.747,255.981 446.991,256.388 447.642,257.201 448.211,258.014 448.699,258.746 449.106,259.478 449.431,260.21 449.675,260.941 449.837,261.673 449.919,262.405 450.163,262.405 z"/>
	</g>
	<use xlink:href="#p" transform="rotate(72 450,300)"/>
	<use xlink:href="#p" transform="rotate(144 450,300)"/>
	<use xlink:href="#p" transform="rotate(216 450,300)"/>
	<use xlink:href="#p" transform="rotate(288 450,300)"/>
	<circle cx="450" cy="300" r="24" fill="#fc0"/>
</svg>
